icons/Color/scalable/gimp-curve-free.svg

<svg height="16" viewBox="0 0 16 16" width="16" xmlns="http://www.w3.org/2000/svg"><g transform="translate(0 -1036.3622)"><path d="m0 1036.3622h16v16h-16z" fill="none"/><path d="m13.5 1a1.5 1.5000001 0 0 0 -1.5 1.5 1.5 1.5000001 0 0 0 .849609 1.3496094l-1.457031 6.6191406-2.8847655-5.6582031-1.8632813 3.8945312-2.1875-5.3535156-2.2246093 8.6738285a1.5 1.5000001 0 0 0 -1.2324219 1.474609 1.5 1.5000001 0 0 0 1.5 1.5 1.5 1.5000001 0 0 0 1.5-1.5 1.5 1.5000001 0 0 0 -.7773438-1.3125l1.453125-5.6601562 1.8984376 4.6464842 1.9628906-4.1054686 3.2343746 6.3417966 2.078125-9.4531248a1.5 1.5000001 0 0 0 1.150391-1.4570312 1.5 1.5000001 0 0 0 -1.5-1.5z" stroke="#d3d7cf" stroke-width=".3" transform="translate(0 1036.3622)"/></g></svg>

<?xml version="1.0" encoding="UTF-8" standalone="no"?>
<svg
   xmlns:dc="http://purl.org/dc/elements/1.1/"
   xmlns:cc="http://creativecommons.org/ns#"
   xmlns:rdf="http://www.w3.org/1999/02/22-rdf-syntax-ns#"
   xmlns:svg="http://www.w3.org/2000/svg"
   xmlns="http://www.w3.org/2000/svg"
   xmlns:sodipodi="http://sodipodi.sourceforge.net/DTD/sodipodi-0.dtd"
   xmlns:inkscape="http://www.inkscape.org/namespaces/inkscape"
   width="16"
   height="16"
   viewBox="0 0 16 16"
   id="svg30571"
   version="1.1"
   inkscape:version="0.91+devel r"
   sodipodi:docname="gimp-curve-free.svg">
  <defs
     id="defs30573" />
  <sodipodi:namedview
     id="base"
     pagecolor="#ffffff"
     bordercolor="#666666"
     borderopacity="1"
     inkscape:pageopacity="0"
     inkscape:pageshadow="2"
     inkscape:zoom="16"
     inkscape:cx="29.163899"
     inkscape:cy="9.988086"
     inkscape:document-units="px"
     inkscape:current-layer="layer1"
     showgrid="true"
     units="px"
     inkscape:snap-page="true"
     inkscape:snap-bbox="true"
     inkscape:bbox-paths="true"
     inkscape:bbox-nodes="true"
     inkscape:snap-bbox-edge-midpoints="true"
     inkscape:snap-bbox-midpoints="true"
     inkscape:object-paths="true"
     inkscape:snap-intersection-paths="true"
     inkscape:object-nodes="true"
     inkscape:snap-smooth-nodes="true"
     inkscape:snap-midpoints="true"
     inkscape:snap-object-midpoints="true"
     inkscape:snap-center="true"
     inkscape:snap-text-baseline="true"
     showborder="false"
     inkscape:window-width="1440"
     inkscape:window-height="752"
     inkscape:window-x="529"
     inkscape:window-y="27"
     inkscape:window-maximized="0"
     inkscape:snap-global="false"
     showguides="false">
    <inkscape:grid
       type="xygrid"
       id="grid7338" />
  </sodipodi:namedview>
  <metadata
     id="metadata30576">
    <rdf:RDF>
      <cc:Work
         rdf:about="">
        <dc:format>
          image/svg+xml
        </dc:format>
        <dc:type
           rdf:resource="http://purl.org/dc/dcmitype/StillImage" />
        <dc:creator>
          <cc:Agent>
            <dc:title>Klaus Staedtler       </dc:title>
          </cc:Agent>
        </dc:creator>
        <dc:title></dc:title>
      </cc:Work>
    </rdf:RDF>
  </metadata>
  <g
     inkscape:label="Layer 1"
     inkscape:groupmode="layer"
     id="layer1"
     transform="translate(0,-1036.3622)">
    <g
       id="g11669">
      <g
         id="g7349">
        <rect
           y="1036.3622"
           x="3.642578e-07"
           height="16"
           width="16"
           id="rect7185"
           style="fill:none;stroke:none" />
        <path
           style="fill:#000000;fill-opacity:1;stroke:#d3d7cf;stroke-width:0.30000001;stroke-miterlimit:4;stroke-dasharray:none;stroke-opacity:1"
           d="M 13.5,1 A 1.5,1.5000001 0 0 0 12,2.5 1.5,1.5000001 0 0 0 12.849609,3.8496094 L 11.392578,10.46875 8.5078125,4.8105469 6.6445312,8.7050781 4.4570312,3.3515625 2.2324219,12.025391 A 1.5,1.5000001 0 0 0 1,13.5 1.5,1.5000001 0 0 0 2.5,15 1.5,1.5000001 0 0 0 4,13.5 1.5,1.5000001 0 0 0 3.2226562,12.1875 L 4.6757812,6.5273438 6.5742188,11.173828 8.5371094,7.0683594 11.771484,13.410156 13.849609,3.9570312 A 1.5,1.5000001 0 0 0 15,2.5 1.5,1.5000001 0 0 0 13.5,1 Z"
           transform="translate(0,1036.3622)"
           id="path7187"
           inkscape:connector-curvature="0" />
      </g>
      <g
         inkscape:export-ydpi="90"
         inkscape:export-xdpi="90"
         inkscape:label="gimp-curve-free"
         id="gimp-curve-free"
         style="display:inline"
         transform="translate(-196.5002,516.5497)" />
    </g>
  </g>
</svg>
